lib/brands/icons/google-surveys.svg

<svg xmlns="http://www.w3.org/2000/svg" fill="none" aria-hidden="true" viewBox="0 0 48 48"><g id="google-surveys-Icon"><g id="Group"><path id="Vector" fill="#FCC934" d="M28.2823 37.8959L41.4272 14.6345C42.6062 12.5774 41.908 9.95599 39.8635 8.75745C37.8413 7.57843 35.2464 8.2641 34.0687 10.2863C34.059 10.303 34.0492 10.3197 34.0408 10.3351L20.79 33.5379L28.2823 37.8959Z"/><path id="Vector_2" fill="#FBBC04" d="M14.2424 24.9698L26.8159 31.9826C28.8116 33.039 29.5739 35.5127 28.5175 37.5084C28.4855 37.5683 28.452 37.6283 28.4172 37.6868C27.1713 39.7201 24.5456 40.4156 22.4566 39.2658L9.85938 32.239L14.2424 24.9698Z"/><path id="Vector_3" fill="#F29900" d="M15.0405 31.5999C16.7048 29.9356 16.7048 27.2372 15.0405 25.5729C13.3762 23.9086 10.6778 23.9086 9.0135 25.5729C7.34919 27.2372 7.34919 29.9356 9.0135 31.5999C10.6778 33.2642 13.3762 33.2642 15.0405 31.5999Z"/></g></g></svg>

<svg xmlns="http://www.w3.org/2000/svg" fill="none" aria-hidden="true" viewBox="0 0 48 48"><path fill="#FCC934" d="m28.282 37.896 13.145-23.262a4.321 4.321 0 0 0-1.563-5.877 4.237 4.237 0 0 0-5.795 1.53l-.028.048L20.79 33.538l7.492 4.358Z"/><path fill="#FBBC04" d="m14.242 24.97 12.574 7.013a4.088 4.088 0 0 1 1.601 5.704 4.466 4.466 0 0 1-5.96 1.579L9.859 32.239l4.383-7.27Z"/><path fill="#F29900" d="M15.04 31.6a4.262 4.262 0 1 0-6.027-6.027A4.262 4.262 0 0 0 15.04 31.6Z"/></svg>
